svg/blobs-icons/no-decorations/water-tap.svg

<svg xmlns="http://www.w3.org/2000/svg" xmlns:xlink="http://www.w3.org/1999/xlink" preserveAspectRatio="xMidYMid" width="203" height="218" viewBox="0 0 203 218"><defs><style>.cls-3{fill:#2476ff}.cls-4{fill:#142a3b}.cls-5{fill:#ff3a2f}.cls-6{fill:#fbb713}</style></defs><g id="group-22svg"><path d="M175.64 203.406C175.64 195.958 189.123 179.119 189.123 179.119s13.485 16.839 13.485 24.287c0 7.447-6.03800000000001 13.485-13.485 13.485C181.677 216.891 175.64 210.853 175.64 203.406z" id="path-1" class="cls-3" fill-rule="evenodd"/><path d="M175.214 86.112s0-.5.0-.5-41.687.0-41.687.0S133.527 85.798 133.527 85.798C130.947 80.966 127.442 76.707 123.264 73.231 121.844 74.123 120.178 74.658 118.378 74.658H71.923C70.781 74.658 69.699 74.424 68.69 74.044 64.793 77.484 61.522 81.618 59.109 86.275H-.012s0 38.593.0 38.593 59.121.0 59.121.0c6.995 13.502 21.069 22.743 37.325 22.743 16.517.0 30.768-9.548 37.642-23.406h29.486s0 33.077.0 33.077 37.879.0 37.879.0.0-40.008.0-40.008c0-15.63-11.335-28.581-26.227-31.162z" id="path-2" class="cls-4" fill-rule="evenodd"/><path d="M126.02 74.658s-60.645.0-60.645.0C64.195 74.658 63.239 73.703 63.239 72.524V58.333C63.239 57.154 64.195 56.197 65.375 56.197H126.02c1.179.0 2.134.957000000000001 2.134 2.136V72.524c0 1.179-.954999999999998 2.134-2.134 2.134z" id="path-3" class="cls-5" fill-rule="evenodd"/><path d="M117.004 56.441s-42.613.0-42.613.0.0-9.229.0-9.229 42.613.0 42.613.0.0 9.229.0 9.229z" id="path-4" class="cls-6" fill-rule="evenodd"/><path d="M106.505 47.212s-21.615.0-21.615.0.0-23.163.0-23.163 21.615.0 21.615.0.0 23.163.0 23.163z" id="path-5" class="cls-4" fill-rule="evenodd"/><path d="M153.331.011C145.198.011 128.171 3.947 113.073 7.914 115.796 10.171 117.428 12.966 117.428 16.003c0 3.038-1.63199999999999 5.831-4.355 8.089 15.098 3.967 32.125 7.903 40.258 7.903 16.394.0 29.684-7.16 29.684-15.992.0-8.832-13.29-15.992-29.684-15.992z" id="path-6" class="cls-4" fill-rule="evenodd"/><path d="M37.581.011c8.133.0 25.161 3.936 40.258 7.903-2.723 2.257-4.355 5.052-4.355 8.089C73.484 19.041 75.116 21.834 77.839 24.092c-15.097 3.967-32.125 7.903-40.258 7.903-16.394.0-29.684-7.16-29.684-15.992C7.897 7.171 21.187.011 37.581.011z" id="path-7" class="cls-4" fill-rule="evenodd"/><path d="M117.428 16.003c0 7.469-9.749 13.523-21.777 13.523-12.026.0-21.777-6.054-21.777-13.523C73.874 8.535 83.625 2.481 95.651 2.481c12.028.0 21.777 6.054 21.777 13.522z" id="path-8" class="cls-4" fill-rule="evenodd"/></g></svg>

<svg xmlns="http://www.w3.org/2000/svg" xmlns:xlink="http://www.w3.org/1999/xlink" preserveAspectRatio="xMidYMid" width="203" height="218" viewBox="0 0 203 218">
  <defs>
    <style>

      .cls-3 {
        fill: #2476ff;
      }

      .cls-4 {
        fill: #142a3b;
      }

      .cls-5 {
        fill: #ff3a2f;
      }

      .cls-6 {
        fill: #fbb713;
      }
    </style>
  </defs>
  <g id="group-22svg">
    <path d="M175.640,203.406 C175.640,195.958 189.123,179.119 189.123,179.119 C189.123,179.119 202.608,195.958 202.608,203.406 C202.608,210.853 196.570,216.891 189.123,216.891 C181.677,216.891 175.640,210.853 175.640,203.406 Z" id="path-1" class="cls-3" fill-rule="evenodd"/>
    <path d="M175.214,86.112 C175.214,86.112 175.214,85.612 175.214,85.612 C175.214,85.612 133.527,85.612 133.527,85.612 C133.527,85.612 133.527,85.798 133.527,85.798 C130.947,80.966 127.442,76.707 123.264,73.231 C121.844,74.123 120.178,74.658 118.378,74.658 C118.378,74.658 71.923,74.658 71.923,74.658 C70.781,74.658 69.699,74.424 68.690,74.044 C64.793,77.484 61.522,81.618 59.109,86.275 C59.109,86.275 -0.012,86.275 -0.012,86.275 C-0.012,86.275 -0.012,124.868 -0.012,124.868 C-0.012,124.868 59.109,124.868 59.109,124.868 C66.104,138.370 80.178,147.611 96.434,147.611 C112.951,147.611 127.202,138.063 134.076,124.205 C134.076,124.205 163.562,124.205 163.562,124.205 C163.562,124.205 163.562,157.282 163.562,157.282 C163.562,157.282 201.441,157.282 201.441,157.282 C201.441,157.282 201.441,117.274 201.441,117.274 C201.441,101.644 190.106,88.693 175.214,86.112 Z" id="path-2" class="cls-4" fill-rule="evenodd"/>
    <path d="M126.020,74.658 C126.020,74.658 65.375,74.658 65.375,74.658 C64.195,74.658 63.239,73.703 63.239,72.524 C63.239,72.524 63.239,58.333 63.239,58.333 C63.239,57.154 64.195,56.197 65.375,56.197 C65.375,56.197 126.020,56.197 126.020,56.197 C127.199,56.197 128.154,57.154 128.154,58.333 C128.154,58.333 128.154,72.524 128.154,72.524 C128.154,73.703 127.199,74.658 126.020,74.658 Z" id="path-3" class="cls-5" fill-rule="evenodd"/>
    <path d="M117.004,56.441 C117.004,56.441 74.391,56.441 74.391,56.441 C74.391,56.441 74.391,47.212 74.391,47.212 C74.391,47.212 117.004,47.212 117.004,47.212 C117.004,47.212 117.004,56.441 117.004,56.441 Z" id="path-4" class="cls-6" fill-rule="evenodd"/>
    <path d="M106.505,47.212 C106.505,47.212 84.890,47.212 84.890,47.212 C84.890,47.212 84.890,24.049 84.890,24.049 C84.890,24.049 106.505,24.049 106.505,24.049 C106.505,24.049 106.505,47.212 106.505,47.212 Z" id="path-5" class="cls-4" fill-rule="evenodd"/>
    <path d="M153.331,0.011 C145.198,0.011 128.171,3.947 113.073,7.914 C115.796,10.171 117.428,12.966 117.428,16.003 C117.428,19.041 115.796,21.834 113.073,24.092 C128.171,28.059 145.198,31.995 153.331,31.995 C169.725,31.995 183.015,24.835 183.015,16.003 C183.015,7.171 169.725,0.011 153.331,0.011 Z" id="path-6" class="cls-4" fill-rule="evenodd"/>
    <path d="M37.581,0.011 C45.714,0.011 62.742,3.947 77.839,7.914 C75.116,10.171 73.484,12.966 73.484,16.003 C73.484,19.041 75.116,21.834 77.839,24.092 C62.742,28.059 45.714,31.995 37.581,31.995 C21.187,31.995 7.897,24.835 7.897,16.003 C7.897,7.171 21.187,0.011 37.581,0.011 Z" id="path-7" class="cls-4" fill-rule="evenodd"/>
    <path d="M117.428,16.003 C117.428,23.472 107.679,29.526 95.651,29.526 C83.625,29.526 73.874,23.472 73.874,16.003 C73.874,8.535 83.625,2.481 95.651,2.481 C107.679,2.481 117.428,8.535 117.428,16.003 Z" id="path-8" class="cls-4" fill-rule="evenodd"/>
  </g>
</svg>
